16x16/apps/lutris_slay-the-spire.svg

<svg xmlns="http://www.w3.org/2000/svg" width="16" height="16" version="1">
 <rect style="fill:#fbce02" width="16" height="16" x="0" y="0" rx="4.8" ry="4.8"/>
 <path style="fill:#33bdc9" d="m 8.8294062,0.59999286 c -0.062916,-0.0122664 0.2740672,1.24253704 0.25625,1.89296874 -0.078058,2.3820292 -0.405686,3.7911568 -0.6875,1.2648436 L 8.1676874,3.382024 l -0.15,1.1335936 C 7.9440914,4.9540688 7.6334812,5.1111212 7.4101564,5.0929616 7.3423548,5.0874496 7.1892968,4.7093268 7.1132812,4.7663992 7.041432,4.8203476 7.0469248,5.3059656 6.9671876,5.4163992 6.8756548,5.5431708 6.7784648,5.707376 6.6757812,5.909368 6.2322316,6.7818856 6.0166016,6.9338572 5.8468752,6.4929616 5.8348872,6.4617976 5.978284,6.2134932 5.9179688,6.1538992 5.8437984,6.0806164 5.5611388,6.1932472 5.5125,6.1367112 5.3252764,5.91914 5.2195312,5.6905284 5.2195312,5.8203048 c 0,0.034364 0.074741,0.9338112 0.1664064,1.4156252 0.1530164,0.8042892 0.1222532,0.970082 -0.3718752,2.022656 -0.4959392,1.05643 -0.5206408,1.195082 -0.3210936,1.76875 0.4544548,1.306481 1.564114,2.904634 2.3921876,3.444532 0.4437788,0.289335 0.9369708,0.527094 1.0953124,0.528125 0.5641924,0.004 2.1754032,-1.690702 2.8101562,-2.955469 C 11.325913,11.376452 11.6,10.734089 11.6,10.616399 11.6,10.498706 11.396605,9.9584429 11.147656,9.4163992 10.726284,8.4989236 10.710417,8.3817108 10.924219,7.719524 c 0.05153,-0.1595912 0.620126,-0.8509684 0.660937,-1.0367188 0.02284,-0.1039568 -0.477338,0.3069728 -0.459375,0.1953124 0.0913,-0.5675948 0.112596,-1.23243 -0.0078,-1.9718748 L 10.953125,4.1796804 10.502344,5.1062428 C 9.9713404,5.7700752 9.952317,5.4488544 9.7583126,3.7203052 9.6735554,2.965146 9.5631538,1.9301522 9.428625,1.6742116 c 0,0 -0.5614684,-1.0668589 -0.5992188,-1.07421874 z M 5.6226406,2.1999928 c -0.076114,0.0103 -0.4627848,0.8243276 -0.5257812,0.9984376 -0.1646308,0.4550184 -0.1207124,0.9383156 0.147656,1.6195312 0.174674,0.44339 0.34061,0.617746 0.5492188,0.5757812 C 6.4173234,5.0968764 6.1181582,4.2728284 6.1851406,3.807024 6.1575166,3.826544 5.9411806,4.1949812 5.8523278,3.9656176 5.7519582,3.706528 5.5171718,3.493548 5.5171718,3.2999928 c 0,-0.2374716 0.2033296,-1.1132386 0.1054688,-1.1 z M 4.7992188,6.771868 C 4.7043692,6.771868 4.4,7.226924 4.4,7.3687428 c 0,0.1418228 0.2879632,0.3539064 0.3828124,0.3539064 0.094849,0 0.3343752,-0.1480208 0.3343752,-0.289844 0,-0.1418228 -0.2231196,-0.6609372 -0.3179688,-0.6609372 z"/>
 <path style="opacity:0.3;fill:#f4f4f7" d="m 9.1695312,5.5804616 c 0.032452,0.058589 0.032924,0.1210512 0.073438,0.1804688 0.095495,0.1400492 0.2466272,0.3036736 0.4828124,0.397656 0.2025928,0.080616 0.4247674,0.050385 0.6078124,0.00392 -0.0104,0.1878404 0.02938,0.4202156 0.0024,0.5882812 -0.01221,0.075892 -0.0047,0.2032804 0.03125,0.3429688 -0.06477,0.088427 -0.116811,0.109944 -0.203907,0.3796876 -0.112919,0.349734 -0.2112378,0.704044 -0.158593,1.1031248 0.05264,0.3990812 0.201135,0.7064188 0.415624,1.1734376 0.116889,0.2545066 0.224897,0.5126426 0.298438,0.7078126 0.02302,0.06109 0.03476,0.09872 0.05,0.14375 -0.0228,0.05984 -0.04591,0.120272 -0.08359,0.208594 -0.101842,0.238679 -0.248638,0.555509 -0.409375,0.875781 -0.25991,0.51788 -0.7905642,1.229247 -1.296093,1.760938 -0.2527648,0.265845 -0.5022644,0.490858 -0.6875,0.628125 -0.060833,0.04508 -0.1006844,0.05586 -0.1453124,0.07422 -0.022692,-0.01017 -0.033692,-0.0134 -0.059375,-0.02578 C 7.925973,14.045537 7.7142282,13.926943 7.5219358,13.801572 7.024997,13.477572 5.8367026,11.880876 5.4484982,10.764853 5.3586602,10.506583 5.3658832,10.542895 5.3797482,10.466416 5.3936122,10.389936 5.4939222,10.1191 5.7383418,9.5984472 5.9895582,9.0633152 6.1537638,8.712224 6.2297482,8.2992284 6.2791962,8.030464 6.2241182,7.7709184 6.1922482,7.510166 6.3698254,7.481302 6.5203586,7.417546 6.6195918,7.347666 7.0628436,7.0354948 7.1520764,6.7380992 7.3890804,6.2718828 c 0.089643,-0.1763392 0.1696256,-0.3086432 0.2265624,-0.3875 0.022756,-0.03152 0.00567,-0.029148 0.022656,-0.05625 0.1286188,-0.030972 0.2321852,-0.067217 0.3523436,-0.1375 0.129054,0.1080084 0.3001916,0.2126636 0.5531252,0.2046876 0.33058,-0.010424 0.5228556,-0.1901956 0.6257812,-0.3148436 z"/>
 <rect style="fill:#f4f4f7" width="2.972" height="2.972" x="12.25" y="-2.74" transform="matrix(0.54075758,0.84117848,-0.54075758,0.84117848,0,0)"/>
</svg>

<svg xmlns="http://www.w3.org/2000/svg" width="16" height="16" version="1"><rect style="fill:#fbce02" width="16" height="16" rx="4.8" ry="4.8"/><path style="fill:#33bdc9" d="M8.83.6c-.064-.012.273 1.243.256 1.893-.078 2.382-.406 3.791-.688 1.265l-.23-.376-.15 1.134c-.074.438-.385.595-.608.577-.068-.006-.22-.384-.297-.327-.072.054-.066.54-.146.65a3.785 3.785 0 0 0-.291.493c-.444.873-.66 1.025-.83.584-.011-.031.132-.28.072-.34-.074-.072-.357.04-.405-.016-.188-.218-.293-.446-.293-.317 0 .035.074.934.166 1.416.153.804.122.97-.372 2.023-.496 1.056-.52 1.195-.321 1.768.454 1.307 1.564 2.905 2.392 3.445.444.29.937.527 1.095.528.565.004 2.176-1.69 2.81-2.955.336-.669.61-1.31.61-1.429 0-.117-.203-.658-.452-1.2-.422-.917-.438-1.034-.224-1.696.052-.16.62-.851.661-1.037.023-.104-.477.307-.46.195a6.156 6.156 0 0 0-.007-1.972l-.165-.726-.45.926c-.532.664-.55.343-.745-1.386-.084-.755-.195-1.79-.33-2.046 0 0-.56-1.067-.599-1.074zM5.622 2.2c-.076.01-.463.824-.526.998-.165.455-.12.939.148 1.62.174.443.34.618.549.576.623-.297.324-1.121.391-1.587-.027.02-.244.388-.333.159-.1-.26-.335-.472-.335-.666 0-.237.204-1.113.106-1.1zm-.824 4.572c-.095 0-.399.455-.399.597 0 .142.288.354.383.354.095 0 .334-.148.334-.29s-.223-.661-.318-.661z"/><path style="opacity:.3;fill:#f4f4f7" d="M9.17 5.58c.032.06.032.122.073.18.095.141.247.305.483.399.202.08.425.05.608.004-.01.187.029.42.002.588a.925.925 0 0 0 .031.343c-.065.088-.117.11-.204.38-.113.35-.21.703-.158 1.103.052.399.2.706.415 1.173.117.255.225.513.299.708.023.06.035.099.05.144-.023.06-.046.12-.084.208-.102.239-.248.556-.41.876-.26.518-.79 1.23-1.295 1.76-.253.267-.503.492-.688.629-.06.045-.1.056-.145.074-.023-.01-.034-.013-.06-.026a5.404 5.404 0 0 1-.565-.321c-.497-.324-1.685-1.921-2.074-3.037-.09-.258-.082-.222-.068-.299.014-.076.114-.347.358-.868.252-.535.416-.886.492-1.299.05-.269-.006-.528-.038-.789.178-.029.328-.092.428-.162.443-.313.532-.61.77-1.076.089-.176.169-.309.226-.388.022-.031.005-.029.022-.056.129-.03.232-.067.353-.137.129.108.3.212.553.204a.82.82 0 0 0 .626-.315z"/><path style="fill:#f4f4f7" transform="scale(.76475 1.1896) rotate(45)" d="M12.25-2.74h2.972V.232H12.25z"/></svg>
